epam-assets/icon-sources/18/ready-to.svg

<svg width="18" height="18" viewBox="0 0 18 18" fill="none" xmlns="http://www.w3.org/2000/svg">
<g id="18/ready-to">
<path id="icon" d="M5.97329 4.32402C5.9745 4.32578 5.97571 4.32754 5.9769 4.32931L7.18909 6.1204L11.4794 6.12127C11.6139 6.12127 11.7409 6.15421 11.8532 6.21266C12.1186 6.28996 12.3404 6.50408 12.4178 6.79784L12.4187 6.80117L13.4724 10.8689C13.5878 11.3143 13.3305 11.7715 12.8968 11.8917C12.4654 12.0113 12.0212 11.7495 11.9047 11.307L11.9038 11.3037L11.6902 10.4815L10.6619 15.8051C10.5897 16.2077 10.2476 16.5 9.84851 16.5H8.78603C8.38881 16.5 8.0477 16.2103 7.97355 15.81L6.43855 7.9404L4.64664 5.29274C4.38957 4.91301 4.47919 4.39167 4.84735 4.125C5.21185 3.86104 5.71595 3.95014 5.97329 4.32402ZM9.11633 1.5C10.1253 1.5 10.9433 2.34603 10.9433 3.38965C10.9433 4.43328 10.1253 5.2793 9.11633 5.2793C8.10733 5.2793 7.28938 4.43328 7.28938 3.38965C7.28938 2.34603 8.10733 1.5 9.11633 1.5Z" fill="#6C6F80"/>
</g>
</svg>

<svg xmlns="http://www.w3.org/2000/svg" width="18" height="18" fill="none" viewBox="0 0 18 18">
  <path fill="#6C6F80" d="m5.973 4.324.004.005L7.189 6.12l4.29.001a.8.8 0 0 1 .374.092.825.825 0 0 1 .565.585V6.8l1.054 4.068a.84.84 0 0 1-.575 1.023.807.807 0 0 1-.992-.585l-.001-.003-.214-.822-1.028 5.323a.833.833 0 0 1-.813.695H8.786a.833.833 0 0 1-.812-.69L6.439 7.94 4.647 5.293a.856.856 0 0 1 .2-1.168.795.795 0 0 1 1.126.199ZM9.116 1.5c1.01 0 1.827.846 1.827 1.89 0 1.043-.818 1.89-1.827 1.89S7.29 4.432 7.29 3.39c0-1.044.818-1.89 1.827-1.89Z"/>
</svg>
